X: 2 % start of header
T:Torus:Taurus Tune
T:23 of 100,000,000,000,000
C: (Sid.)
O: Jeff Minter
R:Procedurally Generated
L: 1/8
K: D % scale: C major
V:1 name="Voice 1"
D16    |     |     |     | D16    |     |     |     | E16    |     |     |     | ^F16    |     |     |     | :|
V:2 name="Voice 2"
G4    | G4    | A4    | B4    | G4    | G4    | A4    | B4    | A4    | A4    | B4    | ^c4    | B4    | B4    | ^c4    | ^d4    | :|
V:3 name="Voice 3"
c1c1d1e1|c1c1d1e1|d1d1e1^f1|e1e1^f1^g1|c1c1d1e1|c1c1d1e1|d1d1e1^f1|e1e1^f1^g1|d1d1e1^f1|d1d1e1^f1|e1e1^f1^g1|^f1^f1^g1^a1|e1e1^f1^g1|e1e1^f1^g1|^f1^f1^g1^a1|^g1^g1^a1c'1|:|
